src/images/Sendcloud/Tile.svg

<svg fill="none" height="120" viewBox="0 0 120 120" width="120" xmlns="http://www.w3.org/2000/svg" xmlns:xlink="http://www.w3.org/1999/xlink"><linearGradient id="a" gradientUnits="userSpaceOnUse" x1="0" x2="120" y1="60" y2="60"><stop offset="0" stop-color="#01d2f7"/><stop offset="1" stop-color="#1e97ff"/></linearGradient><path d="m0 0h120v120h-120z" fill="url(#a)"/><path d="m100.552 69.1713c0-9.5028-7.2925-17.4586-16.5743-18.453-1.326-4.7516-4.1989-9.1716-8.0663-12.3758-4.4786-3.6999-10.1025-5.7307-15.9116-5.7458-5.815-.018-11.4498 2.0167-15.9116 5.7458-3.8674 3.2044-6.63 7.5138-8.0663 12.3757-9.2818.9945-16.5746 8.84-16.5746 18.453 0 .884.11 7.4033 4.9724 12.4862 3.7569 3.8674 9.0608 5.7459 16.0221 5.7459 6.63 0 13.1492-1.105 19.4475-3.4254 1.989.663 3.9779 1.326 5.9669 1.768 4.3726 1.0946 8.8625 1.6512 13.37 1.6575 6.9613 0 12.2652-1.989 16.0221-5.7459 5.1937-5.0829 5.3037-11.4917 5.3037-12.4862zm-4.9721 0s.1105 5.1933-3.6464 8.95c-2.7624 2.7624-6.8508 4.1989-12.2652 4.1989-9.2818 0-16.6851-2.5415-21.326-4.6409-4.42-1.9889-7.1823-3.9779-7.8453-4.53-.11 0-.11-.1105-.11-.221v-10.8288c0-.221.11-.3315.3315-.442l9.5028-4.8619c.0612-.0534.1397-.0829.221-.0829.0812 0 .1597.0295.221.0829l9.5028 4.8619c.221.1105.3315.221.3315.442v10.6072c-.019.1156-.0561.2275-.11.3315-1.4834 1.09-3.0334 2.0864-4.6409 2.9834 2.308.7193 4.6742 1.2369 7.0718 1.547.5525-.442.884-.663.884-.663.5932-.5264 1.0675-1.1731 1.3912-1.8971s.4894-1.5087.4862-2.3018v-10.6072c0-2.0995-1.2155-3.9779-2.9834-4.9724l-9.5028-4.8619c-.7928-.3818-1.6615-.5801-2.5415-.5801-.8799 0-1.7486.1983-2.5414.5801l-9.5028 4.8615c-.9073.4734-1.666 1.1883-2.1925 2.0658-.5265.8774-.8002 1.8833-.7909 2.9066v10.6076c.0093.7912.1807 1.572.5038 2.2942s.791 1.3705 1.3746 1.9047c.1105.1105 2.21 1.768 6.0773 3.8674-4.0884.9945-8.1768 1.4365-12.3757 1.4365-5.4144 0-9.6133-1.4365-12.2652-4.1989-3.6464-3.7569-3.6464-8.84-3.6464-8.95v-.11c0-7.4033 6.0773-13.4807 13.4807-13.4807h2.0994l.442-2.0994c.9028-4.4437 3.2773-8.4534 6.74-11.3812 3.5359-2.9834 8.0663-4.53 12.5967-4.53s9.0608 1.6575 12.5967 4.53 5.8563 6.9613 6.74 11.3812l.442 2.0994h2.0994c7.0719.221 13.1492 6.1879 13.1492 13.7017z" fill="#fff"/></svg>

<svg width="120" height="120" viewBox="0 0 120 120" fill="none" xmlns="http://www.w3.org/2000/svg">
<rect width="120" height="120" fill="url(#paint0_linear_253_2662)"/>
<path d="M100.552 69.1713C100.552 59.6685 93.2595 51.7127 83.9777 50.7183C82.6517 45.9667 79.7788 41.5467 75.9114 38.3425C71.4328 34.6426 65.8089 32.6118 59.9998 32.5967C54.1848 32.5787 48.55 34.6134 44.0882 38.3425C40.2208 41.5469 37.4582 45.8563 36.0219 50.7182C26.7401 51.7127 19.4473 59.5582 19.4473 69.1712C19.4473 70.0552 19.5573 76.5745 24.4197 81.6574C28.1766 85.5248 33.4805 87.4033 40.4418 87.4033C47.0718 87.4033 53.591 86.2983 59.8893 83.9779C61.8783 84.6409 63.8672 85.3039 65.8562 85.7459C70.2288 86.8405 74.7187 87.3971 79.2262 87.4034C86.1875 87.4034 91.4914 85.4144 95.2483 81.6575C100.442 76.5746 100.552 70.1658 100.552 69.1713H100.552ZM95.5799 69.1713C95.5799 69.1713 95.6904 74.3646 91.9335 78.1213C89.1711 80.8837 85.0827 82.3202 79.6683 82.3202C70.3865 82.3202 62.9832 79.7787 58.3423 77.6793C53.9223 75.6904 51.16 73.7014 50.497 73.1493C50.387 73.1493 50.387 73.0388 50.387 72.9283V62.0995C50.387 61.8785 50.497 61.768 50.7185 61.6575L60.2213 56.7956C60.2825 56.7422 60.361 56.7127 60.4423 56.7127C60.5235 56.7127 60.602 56.7422 60.6633 56.7956L70.1661 61.6575C70.3871 61.768 70.4976 61.8785 70.4976 62.0995V72.7067C70.4786 72.8223 70.4415 72.9342 70.3876 73.0382C68.9042 74.1282 67.3542 75.1246 65.7467 76.0216C68.0547 76.7409 70.4209 77.2585 72.8185 77.5686C73.371 77.1266 73.7025 76.9056 73.7025 76.9056C74.2957 76.3792 74.77 75.7325 75.0937 75.0085C75.4174 74.2845 75.5831 73.4998 75.5799 72.7067V62.0995C75.5799 60 74.3644 58.1216 72.5965 57.1271L63.0937 52.2652C62.3009 51.8834 61.4322 51.6851 60.5522 51.6851C59.6723 51.6851 58.8036 51.8834 58.0108 52.2652L48.508 57.1267C47.6007 57.6001 46.842 58.315 46.3155 59.1925C45.789 60.0699 45.5153 61.0758 45.5246 62.0991V72.7067C45.5339 73.4979 45.7053 74.2787 46.0284 75.0009C46.3515 75.7231 46.8194 76.3714 47.403 76.9056C47.5135 77.0161 49.613 78.6736 53.4803 80.773C49.3919 81.7675 45.3035 82.2095 41.1046 82.2095C35.6902 82.2095 31.4913 80.773 28.8394 78.0106C25.193 74.2537 25.193 69.1706 25.193 69.0606V68.9506C25.193 61.5473 31.2703 55.4699 38.6737 55.4699H40.7731L41.2151 53.3705C42.1179 48.9268 44.4924 44.9171 47.9551 41.9893C51.491 39.0059 56.0214 37.4593 60.5518 37.4593C65.0822 37.4593 69.6126 39.1168 73.1485 41.9893C76.6844 44.8618 79.0048 48.9506 79.8885 53.3705L80.3305 55.4699H82.4299C89.5018 55.6909 95.5791 61.6578 95.5791 69.1716L95.5799 69.1713Z" fill="white"/>
<defs>
<linearGradient id="paint0_linear_253_2662" x1="0" y1="60" x2="120" y2="60" gradientUnits="userSpaceOnUse">
<stop stop-color="#01D2F7"/>
<stop offset="1" stop-color="#1E97FF"/>
</linearGradient>
</defs>
</svg>
